!!!COM:	Pierre de la Rue
**kern	**kern
*part2	*part1
*staff2	*staff1
*clefGv2	*clefG2
*k[]	*k[]
*M2/1	*M2/1
=1-	=1-
0d	1r
.	1d
=2	=2
1d	2f
.	2g
1d	2a
.	[2b
=3	=3
1.e	2b]
.	1g
2c	[2cc
=4	=4
0c	4cc]
.	4b
.	4a
.	4g
.	2a
.	4g
.	4f
=5	=5
2r	2e
2.e	2.g
4d	4f
4c	4e
4B	4d
=6	=6
2c	2e
4B	4d
4A	4c
2G	2B
[2A	2A
=7	=7
2A]	1B
2G	.
2A	2r
[2c	2g
=8	=8
4c]	2a
4B	.
4A	1cc
4G	.
2A	.
4G	4b
4F	4a
=9	=9
1E	[0g
2r	.
2B	.
=10	=10
2c	0g]
1e	.
4d	.
4c	.
=11	=11
2B	2r
1e	1cc
2d	2b
=12	=12
2e	2cc
4d	4b
4c	4a
1B	4g
.	4f
.	4e
.	4d
=13	=13
2r	2c
1e	1cc
2d	2b
=14	=14
2e	2cc
4d	4b
4c	4a
4B	1g
4A	.
4G	.
4F	.
=15	=15
1E	2r
.	1cc
2r	.
[2e	2b
=16	=16
2e]	2cc
2d	4b
.	4a
2e	4g
.	4a
4d	4b
4c	4cc
=17	=17
4d	2b
4c	.
4B	1a
4A	.
1B	.
.	2g
=18	=18
1A	[0a
2r	.
[2f	.
=19	=19
2f]	0a]
4e	.
4d	.
2c	.
[2d	.
=20	=20
4d]	1r
4c	.
2c	.
2d	2r
2e	[2cc
=21	=21
1c	2cc]
.	4b
.	4a
2r	2g
2c	[2a
=22	=22
2d	4a]
.	4g
2e	2g
2f	2a
2d	2b
=23	=23
2e	1g
4d	.
4c	.
2B	2r
[2c	2g
=24	=24
4c]	2a
4B	.
4A	2b
4G	.
1A	2cc
.	2a
=25	=25
0G	2b
.	2.g
.	4f
.	4e
.	4d
=26	=26
2r	1e
2.G	.
.	1d
4F	.
4G	.
4A	.
=27	=27
4B	2r
4A	.
4B	2.d
4c	.
2d	.
.	4c
2G	4d
.	4e
=28	=28
2r	4f
.	4e
2.d	4f
.	4g
.	2a
4c	.
4d	2d
4e	.
=29	=29
2.f	2r
.	2.a
4e	.
2d	.
.	4g
[2c	4a
.	4b
=30	=30
2c]	2.cc
1f	.
.	4b
.	2a
2e	2g
=31	=31
2d	2r
4c	1cc
4B	.
2A	.
2d	2b
=32	=32
2c	2a
4B	4g
4A	4f
1G	2e
.	2g
=33	=33
2r	2f
2G	4e
.	4d
2.A	2c
.	[2e
4F	.
=34	=34
4G	4e]
4F	4d
4E	1d
4D	.
1E	.
.	2c
=35	=35
0D	0d
==	==
*-	*-
